assets/azuresqldatawarehouses/original.svg

<svg height="18" viewBox="0 0 18 18" width="18" xmlns="http://www.w3.org/2000/svg" xmlns:xlink="http://www.w3.org/1999/xlink"><linearGradient id="a" gradientUnits="userSpaceOnUse" x1="7.37" x2="7.37" y1=".5" y2="13.23"><stop offset="0" stop-color="#b3b2b3"/><stop offset=".38" stop-color="#afaeaf"/><stop offset=".76" stop-color="#a2a2a2"/><stop offset="1" stop-color="#979797"/></linearGradient><linearGradient id="b" gradientUnits="userSpaceOnUse" x1="8.96" x2="17.32" y1="13.29" y2="13.29"><stop offset="0" stop-color="#005ba1"/><stop offset=".07" stop-color="#0060a9"/><stop offset=".36" stop-color="#0071c8"/><stop offset=".52" stop-color="#0078d4"/><stop offset=".64" stop-color="#0074cd"/><stop offset=".82" stop-color="#006abb"/><stop offset="1" stop-color="#005ba1"/></linearGradient><path d="m7.37.5-6.69 3.88v.96h1.23v7.28h1.21v-7.28h8.5v7.89h1.21v-7.89h1.23v-.96z" fill="url(#a)"/><path d="m4.33 12.62h2.43v-2.42h-2.43zm3.64 0h2.43v-2.42h-2.4zm-3.64-3.62h2.43v-2.45h-2.43zm3.67-2.45v2.45h2.4v-2.45z" fill="#50e6ff"/><path d="m13.14 10.41c-2.31 0-4.14-.6-4.14-1.33v7.09c0 .73 1.84 1.32 4.12 1.33h.06c2.31 0 4.18-.6 4.18-1.33v-7.09c-.04.73-1.91 1.33-4.22 1.33" fill="url(#b)"/><path d="m17.32 9.08c0 .73-1.87 1.33-4.18 1.33s-4.14-.6-4.14-1.33 1.87-1.33 4.18-1.33 4.18.59 4.18 1.33" fill="#e8e8e8"/><path d="m16.35 9c0 .47-1.44.85-3.21.85s-3.2-.41-3.2-.85 1.43-.85 3.2-.85 3.21.38 3.21.85" fill="#50e6ff"/><path d="m13.14 9.17a8.6 8.6 0 0 0 -2.54.32 8.5 8.5 0 0 0 2.54.33 8.5 8.5 0 0 0 2.54-.33 8.6 8.6 0 0 0 -2.54-.32" fill="#32bedd"/></svg>

<svg xmlns="http://www.w3.org/2000/svg" id="b2f464cb-b92f-4bc9-9d8a-b83d938321a8" width="18" height="18" viewBox="0 0 18 18"><defs><linearGradient id="fbb0c6d7-8dd3-4464-9217-32033b9dbe40" x1="7.37" x2="7.37" y1=".5" y2="13.23" gradientUnits="userSpaceOnUse"><stop offset="0" stop-color="#b3b2b3"/><stop offset=".38" stop-color="#afaeaf"/><stop offset=".76" stop-color="#a2a2a2"/><stop offset="1" stop-color="#979797"/></linearGradient><linearGradient id="f4df9409-8db7-49ba-98de-c39ce5949175" x1="8.96" x2="17.32" y1="13.29" y2="13.29" gradientUnits="userSpaceOnUse"><stop offset="0" stop-color="#005ba1"/><stop offset=".07" stop-color="#0060a9"/><stop offset=".36" stop-color="#0071c8"/><stop offset=".52" stop-color="#0078d4"/><stop offset=".64" stop-color="#0074cd"/><stop offset=".82" stop-color="#006abb"/><stop offset="1" stop-color="#005ba1"/></linearGradient></defs><title>Icon-databases-125</title><path fill="url(#fbb0c6d7-8dd3-4464-9217-32033b9dbe40)" d="M7.37.5.68 4.38v.96h1.23v7.28h1.21V5.34h8.5v7.89h1.21V5.34h1.23v-.96z"/><path fill="#50e6ff" d="M4.33 12.62h2.43V10.2H4.33Zm3.64 0h2.43V10.2H8ZM4.33 9h2.43V6.55H4.33ZM8 6.55V9h2.4V6.55Z"/><path fill="url(#f4df9409-8db7-49ba-98de-c39ce5949175)" d="M13.14 10.41c-2.31 0-4.14-.6-4.14-1.33v7.09c0 .73 1.84 1.32 4.12 1.33h.06c2.31 0 4.18-.6 4.18-1.33V9.08c-.04.73-1.91 1.33-4.22 1.33"/><path fill="#e8e8e8" d="M17.32 9.08c0 .73-1.87 1.33-4.18 1.33S9 9.81 9 9.08s1.87-1.33 4.18-1.33 4.18.59 4.18 1.33"/><path fill="#50e6ff" d="M16.35 9c0 .47-1.44.85-3.21.85s-3.2-.41-3.2-.85 1.43-.85 3.2-.85 3.21.38 3.21.85"/><path fill="#32bedd" d="M13.14 9.17a8.6 8.6 0 0 0-2.54.32 8.5 8.5 0 0 0 2.54.33 8.5 8.5 0 0 0 2.54-.33 8.6 8.6 0 0 0-2.54-.32"/></svg>
